public/icons/social-media-icons.svg

<svg width="139px" height="26px" viewBox="0 0 139 26" version="1.1" xmlns="http://www.w3.org/2000/svg" xmlns:xlink="http://www.w3.org/1999/xlink">
    <g id="Symbols" stroke="none" stroke-width="1" fill="none" fill-rule="evenodd">
        <g id="footer-dark" transform="translate(-1145.000000, -321.000000)" fill="#4A4A4A">
            <g id="footer">
                <g id="Social" transform="translate(1145.000000, 321.000000)">
                    <path d="M136.147206,2 L117.852794,2 C116.277146,2 115,3.27387284 115,4.84624826 L115,23.1537517 C115,24.7254725 116.277146,26 117.852794,26 L136.147206,26 C137.722854,26 139,24.7254725 139,23.1537517 L139,4.84624826 C139,3.27387284 137.722854,2 136.147206,2 L136.147206,2 Z M132.250307,5.74961132 C132.250307,5.33589723 132.586122,5.00008183 132.999836,5.00008183 L135.249734,5.00008183 C135.664103,5.00008183 135.999918,5.33589723 135.999918,5.74961132 L135.999918,8.00016365 C135.999918,8.41387775 135.664103,8.74969315 135.249734,8.74969315 L132.999836,8.74969315 C132.586122,8.74969315 132.250307,8.41387775 132.250307,8.00016365 L132.250307,5.74961132 L132.250307,5.74961132 Z M127.027821,9.42328778 C129.576876,9.42328778 131.643483,11.4853122 131.643483,14.027821 C131.643483,16.5709844 129.576876,18.6323541 127.027821,18.6323541 C124.479421,18.6323541 122.412814,16.5709844 122.412814,14.027821 C122.412814,11.4853122 124.479421,9.42328778 127.027821,9.42328778 L127.027821,9.42328778 Z M136.750102,22.9999182 C136.750102,23.4136323 136.414287,23.7501023 135.999918,23.7501023 L118.000082,23.7501023 C117.585713,23.7501023 117.249898,23.4136323 117.249898,22.9999182 L117.249898,11.749775 L120.24998,11.749775 C119.859177,12.3120858 119.726945,13.3614271 119.726945,14.027821 C119.726945,18.0438589 123.002618,21.3116766 127.027821,21.3116766 C131.053678,21.3116766 134.329351,18.0438589 134.329351,14.027821 C134.329351,13.3614271 134.234433,12.328451 133.75002,11.749775 L136.750102,11.749775 L136.750102,22.9999182 L136.750102,22.9999182 Z" id="Instagram"></path>
                    <path d="M79.2277254,1.44368972 C78.1167864,2.13729134 76.8892212,2.64172888 75.5771767,2.91163372 C74.5320268,1.73512544 73.0383147,1 71.3846154,1 C68.2147759,1 65.6422716,3.71288969 65.6422716,7.05863317 C65.6422716,7.53385025 65.6916135,7.99445708 65.7902972,8.43814681 C61.0161002,8.18515908 56.7839158,5.77600846 53.9490028,2.10576399 C53.4540891,3.00390888 53.1714949,4.04584922 53.1714949,5.15545801 C53.1714949,7.25625581 54.1852455,9.11098651 55.7275519,10.1975265 C54.7870665,10.168306 53.8996609,9.89301849 53.1236483,9.44240813 L53.1236483,9.51622825 C53.1236483,12.4528852 55.1040504,14.9027907 57.7341201,15.4572106 C57.2526633,15.5994681 56.7442928,15.6709814 56.2202227,15.6709814 C55.8501589,15.6709814 55.4890663,15.6340713 55.1391878,15.563327 C55.8703442,17.9694018 57.9905482,19.7218609 60.5047393,19.7687674 C58.5392892,21.3943481 56.0609831,22.3632373 53.3703575,22.3632373 C52.9068432,22.3632373 52.4485622,22.3355548 52,22.2801897 C54.5418525,23.9965076 57.5629189,25 60.8060235,25 C71.3734013,25 77.1501348,15.7694082 77.1501348,7.76223126 C77.1501348,7.4984781 77.1456492,7.2354939 77.1359304,6.97712345 C78.2580835,6.12280927 79.2329586,5.05626222 80,3.84130595 C78.9712974,4.3226747 77.8633487,4.64871359 76.7015726,4.79481593 C77.8880197,4.04584922 78.7986009,2.8585755 79.2277254,1.44368972" id="Twitter"></path>
                    <path d="M9.73620696,26 L9.73620696,14.1402482 L14.1587772,14.1402482 L14.8208944,9.51820958 L9.73620696,9.51820958 L9.73620696,6.56724217 C9.73620696,5.22905413 10.1489785,4.3171539 12.280909,4.3171539 L15,4.31600643 L15,0.18210465 C14.5296087,0.125878261 12.9156185,0 11.0378778,0 C7.11756807,0 4.43378829,2.15392967 4.43378829,6.10962822 L4.43378829,9.51820958 L0,9.51820958 L0,14.1402482 L4.43378829,14.1402482 L4.43378829,26 L9.73620696,26 Z" id="Faacebook"></path>
                </g>
            </g>
        </g>
    </g>
</svg>

<svg xmlns="http://www.w3.org/2000/svg" width="139" height="26" fill="#4a4a4a" fill-rule="evenodd" xmlns:v="https://vecta.io/nano"><path d="M136.147 2h-18.294A2.85 2.85 0 0 0 115 4.846v18.308A2.85 2.85 0 0 0 117.853 26h18.294A2.85 2.85 0 0 0 139 23.154V4.846A2.85 2.85 0 0 0 136.147 2h0zm-3.897 3.75A.75.75 0 0 1 133 5h2.25a.75.75 0 0 1 .75.75V8a.75.75 0 0 1-.75.75H133a.75.75 0 0 1-.75-.75V5.75h0zm-5.222 3.674c2.549 0 4.616 2.062 4.616 4.605a4.615 4.615 0 1 1-9.231 0 4.61 4.61 0 0 1 4.615-4.605h0zM136.75 23a.75.75 0 0 1-.75.75h-18a.75.75 0 0 1-.75-.75V11.75h3c-.391.562-.523 1.612-.523 2.278 0 4.016 3.276 7.284 7.301 7.284s7.302-3.268 7.302-7.284c0-.666-.095-1.699-.579-2.278h3V23h0zM79.228 1.444a11.11 11.11 0 0 1-3.651 1.468C74.532 1.735 73.038 1 71.385 1c-3.17 0-5.742 2.713-5.742 6.059a6.34 6.34 0 0 0 .148 1.38c-4.774-.253-9.006-2.662-11.841-6.332-.495.898-.778 1.94-.778 3.05 0 2.101 1.014 3.956 2.556 5.042-.94-.029-1.828-.305-2.604-.755v.074c0 2.937 1.98 5.387 4.61 5.941-.481.142-.99.214-1.514.214a5.43 5.43 0 0 1-1.081-.108c.731 2.406 2.851 4.159 5.366 4.205-1.965 1.626-4.444 2.594-7.134 2.594a11.25 11.25 0 0 1-1.37-.083c2.542 1.716 5.563 2.72 8.806 2.72C71.373 25 77.15 15.769 77.15 7.762c0-.264-.004-.527-.014-.785A11.99 11.99 0 0 0 80 3.841a11.01 11.01 0 0 1-3.298.954c1.186-.749 2.097-1.936 2.526-3.351M9.736 26V14.14h4.423l.662-4.622H9.736V6.567c0-1.338.413-2.25 2.545-2.25L15 4.316V.182C14.53.126 12.916 0 11.038 0c-3.92 0-6.604 2.154-6.604 6.11v3.409H0v4.622h4.434V26h5.302z"/></svg>
